X: 18576
T: I Ne'er Shall Wean Her
R: jig
M: 6/8
K: Adorian
|:G|EGG GED|EGG c2B|A3 AGA|cde e2d|
cde g2a|ged c2d|eaa e2d|cAA A2:|
|:d|egg ged|egg g2d|eaa aga|baa a2g|
cde g2a|ged c2d|eaa e2d|cAA A2:|

